X:1
T:[ID 1-64]
T:[ID 1-64]
T:Bezeichnung standardisiert: Menuet [mit Trio] Men\"uet Con Trio
T:Urheber unbekannt Datum in der hier transkribierten schriftlichen Quelle: vermutlich vor 1767
C:Urheber unbekannt
C:Datum in der hier transkribierten schriftlichen Quelle: vermutlich vor 1767
L:1/8
M:3/4
K:D
V:1 treble 
V:1
 d4 cd | e2 c2 d2 | f4 ef | g2 e2"^[sic]" e2 | a4 (3gfe | a4 (3gfe | d2 c2 B2 | A6 :: A2 A,2 A,2 | %9
 A,2 A4 | B2 gfed | cB A4 | d2 D2 D2 | f2 d2 d2 | defgaf | d6 :| %16
[K:F][M:3/4]"^Trio" !fermata!d2 f2 e2 | d2 a2 g2 | f2 e2 d2 | ae A4 | b2 g2 e2 | B4 A2 | G2 F2 E2 | %23
 F6 :: a2 a2 a2 | fefd e2 | A2 A2 A2 | FEFD E2 | A2 d2 ^c2 | d2 a2 g2 | f2 gfef | d6 :| %32

